X: 544
T: Der Yemenî Pîş-i Menî
C: Şeyhülislam Esad Efendi
O: Turkey
F: http://compmusic.upf.edu/node/140
N: dugah--yuruksemai--yuruksemai--der_yemeni--seyhulislam_esad_efendi
N: makam= dugah
N: form= yuruksemai
N: usul= yuruksemai = 6/8
M: 6/8
L: 1/16
K: C _1/4B _7/8d  
Q: 1/4=104
%%MIDI tuningsystem comma53
G6A2 A4A4 A2B2A2G2  | A4{B}A2G2 A4B4 c8  | \
w:  Der  *  Ye me nî   |  pîş_ *  *  *  i  me nî   | 
z4G4 _3/4d4d2c2 d2c4B2  | 
w:  pîş_ i  me *  nî   | 
B4A4 c4B4 A6z2  | B4c4 B4{c}B2c2 A6z2  | \
w:  der  *  Ye me nî    |  Yâr  *  *  *  *  *  ey   | 
B4c4 B4A4 A2^G^1/4FG2A2  | 
w:  yâr  *  *  *  ey   | 
^G4A8z4 z8  | G6A2 A4A4 A2B2A2G2  | A4{B}A2G2 A4B4 c8  | \
w:  yâr    |  Der  *  çe me nî   |  verd_ *  *  *  i  me nî   | 
z4G4 _3/4d4d2c2 d2c4B2  | 
w:  verd_ i  me *  nî   | 
B4A4 c4B4 A6z2  | B4c4 B4{c}B2c2 A6z2  | \
w:  der  çe *  me nî    |  Yâr  *  *  *  *  *  ey   | 
B4c4 B4A4 A2^G^1/4FG2A2  | 
w:  yâr  *  *  *  ey   | 
^G4A8z4 G6A2  | A8 B4c2_3/4d2 d2c4B2  | \
w:  yâr   *  Kur  |  bâ nın_ o *  lam   | 
e2_3/4d2d2c2 c2B2BAB2 d2c4B2  | 
w:  men  *  ey  *  *  *  yâr_ *  *  *  *  i   | 
c3BA8z4 G6A2  | A8 B4c2_3/4d2 =d2c4B2  | \
w:  yâr   *  *  Hay  |  râ nın_ o *  *  lam   | 
e2_3/4d2d2c2 c2B2BAB2 d2c4B2  | 
w:  men  *  ey  *  *  *  dost   | 
c3BA8z4 f2e2f2g2  | e2f2e2_3/4d2 d2c2c2d2 d2c4B2  | \
w:  dost   *  *  Bî  |  çâ *  *  *  re  *  di *  lem   | 
e2_3/4d2d2c2 c2d2cBA2 B6z2  | 
w:  men_ *  ey  *  *  *  yâr   | 
c4_3/4d4 c4B2c2 A6z2  | c4_3/4d4 c4B2c2 A6z2  | \
w:  yâr  *  *  *  *  ey    |  Yâr  *  *  *  *  ey   | 
B4c4 B4A4 A2^G^1/4FG2A2  | 
w:  yâr  *  *  *  ey   | 
^G4A8z4 z8  | G12A12  | B8 c4{_3/4d}c2B2 A6z2  | \
w:  yâr    |  Hey  hey   |  hey   | 
G8 A4A4 A2B2A2G2  | A4{B}A2G2 A4B4 c6z2  | 
w:  det  de  re  dil   |  lâ  *  *  *  de  re  dim   | 
c4_3/4d8{e}d2c2 d4c4  | c2_3/4d2e2f2 e2d2c2d2 d2c4B2  | \
w:  ten   |  ten   | 
B8 c4B4 A6z2  | 
w:  ten   | 
G8 A4A4 A2B2A2G2  | A4{B}A2G2 A4B4 c6z2  | \
w:  dost   De  re  dil   |  lâ  *  *  *  de  re  dim   | 
c4_3/4d6c2e2d2 c6B2  | 
w:  ten  *  *  ye  *  le  li   | 
B4c4 B4A4 A^G^1/4F2G2A2  | ^G4A8c2_3/4d2 e8  | \
w:  li  *  *  ye  lel   |  lâ   *  SAZ  | 
_3/4d6e2 e4e4 e8  | e2g2^f2g2 f4g2f2 e8  | 
w:  Her  *  sü hâ nî   |  bâ  *  *  *  tü  me *  râ   | 
z4e4 a4g2f2 e2f2_3/4d2e2  | c4_3/4d4 c4B4 A6z2  | \
w:  bâ  tü  me *  râ   |  her  *  sü hâ nî    | 
_3/4d4e8f2g2 e6z2  | 
w:  Yâr  *  *  *  ey   | 
c4_3/4d4 c4B4 A2^G^1/4FG2A2  | ^G4A8z4 z8  | \
w:  yâr  *  *  *  ey   |  yâr    | 
G6A2 A4A4 A2B2A2G2  | 
w:  Her  *  de he nî   | 
A4{B}A2G2 A4B4 c8  | z4G4 _3/4d4d2c2 d2c4B2  | \
w:  bûş_ *  *  *  i  tü râ   |  bûş_ i  tü *  râ   | 
B4A4 c4B4 A6z2  | B4c4 B4{c}B2c2 A6z2  | 
w:  her  *  de he nî    |  Yâr  *  *  *  *  *  ey   | 
B4c4 B4A4 A2^G^1/4FG2A2  | ^G4A8z4 =G6A2  | \
w:  yâr  *  *  *  ey   |  yâr   *  Kur  | 
A8 B4c2_3/4d2 d2c4B2  | 
w:  bâ nın_ o *  lam   | 
e2_3/4d2d2c2 c2B2BAB2 d2c4B2  | c3BA8z4 G6A2  | \
w:  men  *  ey  *  *  *  yâr_ *  *  *  *  i   |  yâr   *  *  Hay  | 
A8 B4c2_3/4d2 =d2c4B2  | 
w:  râ nın_ o *  *  lam   | 
e2_3/4d2d2c2 c2B2BAB2 d2c4B2  | c3BA8z4 f2e2f2g2  | \
w:  men  *  ey  *  *  *  dost   |  dost   *  *  Bî  | 
e2f2e2_3/4d2 d2c2c2d2 d2c4B2  | 
w:  çâ *  *  *  re  *  di *  lem   | 
e2_3/4d2d2c2 c2d2cBA2 B6z2  | c4_3/4d4 c4B2c2 A6z2  | \
w:  men_ *  ey  *  *  *  yâr   |  yâr  *  *  *  *  ey    | 
c4_3/4d4 c4B2c2 A6z2  | 
w:  Yâr  *  *  *  *  ey   | 
B4c4 B4A4 A2^G^1/4FG2A2  | ^G4A8z4 z8  | |


